X:135
T:Highland Laddy
A:Wyresdale, Lancashire
B:E and J Winder, 1835-41
L:1/8
M:2/4
O:England
Z:Richard Robinson 
%%TUNEURL: http://www.leeds.ac.uk/music/Info/RRTuneBk/gettune/00000e9a.html
%%ID:00000e9a
K:A mixolydian
f|\
ecAc | e2(dc) | dBBc | dBBf | ecAc | e2(dc) | BAAc | BAA ::
g |\
fefg | e2(dc) | dBBc | dBBg | fefa | e2(dc) | BAAc | BAA :|
